X: 1968
T: Wattle Flat Races
B: australian traditional tunes wiki
M:6/8
L:1/8
R: Jig
Q: 3/8=100
K:G
V:1 
|:"G"ggg ddd|BdBG3|"D7"DEF GAB|dcBA3|
aaa fff|dddc3|DEF ABA|1"G"G3d3:|2"G"G3B2c||
|:"G"ded BGB|ded BGB|d2B e2B|d2c "D7"A2B|
c3 AFA|c3d3|fed cBA|1"G" B2-B3c:|2"G" G3-G3||
% abcbook-tune_id 6342d5bec5d5493f35ff2f84


% abcbook-boost 0
% abcbook-tablature 
% abcbook-transpose 
% abcbook-lastupdated 1665324491263
% abcbook-soundfonts 
% abcbook-repeats 1
% NFF Book 2008

